X:1
T: Dunse Castle
C:Abraham Mackintosh
R:Reel
Q: 232
K:G
M:4/4
L:1/8
|:B1/2c1/2|dB gB dg Bg|dB gB aA AB1/2c1/2|dB gB fb Bg|eg d1/2e1/2d1/2c1/2 BG GB1/2c1/2|
dB gB dg Bg|dB gB aA AB1/2c1/2|dB gB fb Bg|eg d1/2e1/2d1/2c1/2 BG G:|
|:B1/2c1/2|dg Bg dG GB1/2c1/2|dg Bg aA AB1/2c1/2|dg Bg ca Ac|Bd Ac BG GB1/2c1/2|
dg Bg dG GB1/2c1/2|dg Bg aA AB1/2c1/2|db ca Bg Af|ge d1/2e1/2d1/2c1/2 BG G:|
